X:310
T:Petronella
M:4/4
L:1/8
R:reel
K:D
dA|:"D"F2 AF "A7"E2 AF|"D"D2D2 D2 FA|"G"d2 cd "E7"e2d2|"A7"cdec A2 dA |
"D"F2 AF "A7"E2 AF|"D"D2D2 D2 FA|"G"d2 cd "A7"e2c2|"D"d4 d2 dA:|
|:"D"F2 fd A2 af|"Em"g2 gf edcB|"A7"A2 ec A2 ge|"D"f2 fd "A7"AdAF |
"D"D2 fd A2 af|"Em"g2 gf edcB|"A7"A2 ec Agec|"D"d4 d2 dA:|

